svgs/sharp-light/game-board.svg

<svg xmlns="http://www.w3.org/2000/svg" viewBox="0 0 448 512"><!--! Font Awesome Pro 6.6.0 by @fontawesome - https://fontawesome.com License - https://fontawesome.com/license (Commercial License) Copyright 2024 Fonticons, Inc. --><path d="M32 64l0 384 384 0 0-384L32 64zM0 32l32 0 384 0 32 0 0 32 0 384 0 32-32 0L32 480 0 480l0-32L0 64 0 32zm144 80l0 32 64 0 0-32 0-16 32 0 0 16 0 32 64 0 0-32 0-16 32 0 0 16 0 32 32 0 16 0 0 32-16 0-32 0 0 64 32 0 16 0 0 32-16 0-32 0 0 64 32 0 16 0 0 32-16 0-32 0 0 32 0 16-32 0 0-16 0-32-64 0 0 32 0 16-32 0 0-16 0-32-64 0 0 32 0 16-32 0 0-16 0-32-32 0-16 0 0-32 16 0 32 0 0-64-32 0-16 0 0-32 16 0 32 0 0-64-32 0-16 0 0-32 16 0 32 0 0-32 0-16 32 0 0 16zm0 128l64 0 0-64-64 0 0 64zm96 0l64 0 0-64-64 0 0 64zm0 32l0 64 64 0 0-64-64 0zm-32 0l-64 0 0 64 64 0 0-64z"/></svg>

<svg xmlns="http://www.w3.org/2000/svg" viewBox="0 0 448 512"><!--! Font Awesome Pro 6.4.0 by @fontawesome - https://fontawesome.com License - https://fontawesome.com/license (Commercial License) Copyright 2023 Fonticons, Inc. --><path d="M32 64V448H416V64H32zM0 32H32 416h32V64 448v32H416 32 0V448 64 32zm144 80v32h64V112 96h32v16 32h64V112 96h32v16 32h32 16v32H368 336v64h32 16v32H368 336v64h32 16v32H368 336v32 16H304V400 368H240v32 16H208V400 368H144v32 16H112V400 368H80 64V336H80h32V272H80 64V240H80h32V176H80 64V144H80h32V112 96h32v16zm0 128h64V176H144v64zm96 0h64V176H240v64zm0 32v64h64V272H240zm-32 0H144v64h64V272z"/></svg>
